src/assets/icons/biz-money,simple,receipt.svg

<svg width="48" height="48" viewBox="0 0 48 48" fill="none" xmlns="http://www.w3.org/2000/svg">
<rect opacity="0.2" x="5" y="5" width="38" height="38" rx="4" fill="black"/>
<mask id="mask0_32:441" style="mask-type:alpha" maskUnits="userSpaceOnUse" x="5" y="5" width="38" height="38">
<rect x="5" y="5" width="38" height="38" rx="4" fill="#66AADA"/>
</mask>
<g mask="url(#mask0_32:441)">
<path fill-rule="evenodd" clip-rule="evenodd" d="M10.3436 10.0482C10 10.3472 10 10.9816 10 12.2505V35C10 36.8857 10 37.8285 10.5858 38.4143C11.1716 39 12.1144 39 14 39H34C35.8856 39 36.8284 39 37.4142 38.4143C38 37.8285 38 36.8857 38 35V12.2505C38 10.9816 38 10.3472 37.6564 10.0482C37.5506 9.95622 37.4267 9.88747 37.2926 9.84645C36.8571 9.71317 36.3188 10.049 35.2423 10.7207C34.4178 11.2352 34.0055 11.4924 33.5525 11.5424C33.4068 11.5584 33.2598 11.5584 33.1141 11.5424C32.6612 11.4924 32.2489 11.2352 31.4243 10.7207L30.7841 10.3212C29.7543 9.67868 29.2394 9.35742 28.6667 9.35742C28.0939 9.35742 27.579 9.67868 26.5492 10.3212L26.1174 10.5906C25.0877 11.2332 24.5728 11.5544 24 11.5544C23.4272 11.5544 22.9123 11.2332 21.8826 10.5906L21.4508 10.3212C20.421 9.67868 19.9061 9.35742 19.3333 9.35742C18.7606 9.35742 18.2457 9.67868 17.2159 10.3212L16.5757 10.7207C15.7511 11.2352 15.3388 11.4924 14.8859 11.5424C14.7402 11.5584 14.5932 11.5584 14.4475 11.5424C13.9945 11.4924 13.5822 11.2352 12.7577 10.7207C11.6812 10.049 11.1429 9.71317 10.7074 9.84645C10.5733 9.88747 10.4494 9.95622 10.3436 10.0482ZM15.5 15C14.6716 15 14 15.6716 14 16.5C14 17.3285 14.6716 18 15.5 18H32.5C33.3284 18 34 17.3285 34 16.5C34 15.6716 33.3284 15 32.5 15H15.5ZM20 22.5C20 21.6716 20.6716 21 21.5 21H32.5C33.3284 21 34 21.6716 34 22.5C34 23.3285 33.3284 24 32.5 24H21.5C20.6716 24 20 23.3285 20 22.5ZM21.5 27C20.6716 27 20 27.6716 20 28.5C20 29.3285 20.6716 30 21.5 30H32.5C33.3284 30 34 29.3285 34 28.5C34 27.6716 33.3284 27 32.5 27H21.5ZM20 34.5C20 33.6716 20.6716 33 21.5 33H32.5C33.3284 33 34 33.6716 34 34.5C34 35.3285 33.3284 36 32.5 36H21.5C20.6716 36 20 35.3285 20 34.5ZM16.5 21C15.6716 21 15 21.6716 15 22.5C15 23.3285 15.6716 24 16.5 24C17.3284 24 18 23.3285 18 22.5C18 21.6716 17.3284 21 16.5 21ZM15 28.5C15 27.6716 15.6716 27 16.5 27C17.3284 27 18 27.6716 18 28.5C18 29.3285 17.3284 30 16.5 30C15.6716 30 15 29.3285 15 28.5ZM16.5 33C15.6716 33 15 33.6716 15 34.5C15 35.3285 15.6716 36 16.5 36C17.3284 36 18 35.3285 18 34.5C18 33.6716 17.3284 33 16.5 33Z" fill="black"/>
</g>
</svg>

<svg xmlns="http://www.w3.org/2000/svg" width="48" height="48" fill="none" viewBox="0 0 48 48">
  <rect width="38" height="38" x="5" y="5" fill="#000" opacity=".2" rx="4"/>
  <mask id="a" width="38" height="38" x="5" y="5" maskUnits="userSpaceOnUse" style="mask-type:alpha">
    <rect width="38" height="38" x="5" y="5" fill="#66AADA" rx="4"/>
  </mask>
  <g mask="url(#a)">
    <path fill="#000" fill-rule="evenodd" d="M10.344 10.048c-.344.3-.344.934-.344 2.203V35c0 1.886 0 2.828.586 3.414C11.172 39 12.114 39 14 39h20c1.886 0 2.828 0 3.414-.586C38 37.828 38 36.886 38 35V12.25c0-1.268 0-1.903-.344-2.202a1 1 0 00-.363-.202c-.436-.133-.974.203-2.05.875-.825.514-1.238.771-1.69.821a2.008 2.008 0 01-.439 0c-.453-.05-.865-.307-1.69-.821l-.64-.4c-1.03-.642-1.545-.964-2.117-.964-.573 0-1.088.322-2.118.964l-.432.27c-1.03.642-1.544.963-2.117.963s-1.088-.32-2.117-.963l-.432-.27c-1.03-.642-1.545-.964-2.118-.964-.572 0-1.087.322-2.117.964l-.64.4c-.825.514-1.237.771-1.69.821a2.008 2.008 0 01-.438 0c-.454-.05-.866-.307-1.69-.821-1.077-.672-1.615-1.008-2.05-.875a1 1 0 00-.364.202zM15.5 15a1.5 1.5 0 000 3h17a1.5 1.5 0 100-3h-17zm4.5 7.5a1.5 1.5 0 011.5-1.5h11a1.5 1.5 0 010 3h-11a1.5 1.5 0 01-1.5-1.5zm1.5 4.5a1.5 1.5 0 000 3h11a1.5 1.5 0 100-3h-11zM20 34.5a1.5 1.5 0 011.5-1.5h11a1.5 1.5 0 010 3h-11a1.5 1.5 0 01-1.5-1.5zM16.5 21a1.5 1.5 0 100 3 1.5 1.5 0 000-3zM15 28.5a1.5 1.5 0 113 0 1.5 1.5 0 01-3 0zm1.5 4.5a1.5 1.5 0 100 3 1.5 1.5 0 000-3z" clip-rule="evenodd"/>
  </g>
</svg>
